X:1
T:Blow Ye Winds of Morning
M:4/4
L:1/4
K:G
 D| D G G A| G- F E D| G3/2 D/2 G B| d3| d| c c c A| B A G G| E A A G|\
 G- F E D| G3/2 F/2 G A| G- F E- D| G3/2 F/2 G B| d3 d| c c c A| B A G G|\
 A2 d2| G3||
